X:324
T:B324-  No, No, Poor Suffering Heart
Q:1/4=120
L:1/4
M:3/4
K:Dm
fdA|F3/2G/A|dg(f/e/4f/4)|^c2e|\
f3/2c/A|B3/2c/d|G(A/4B/4c/) (B3/4A/4)|G2F|\
A(d3/4e/4)d|=B3/2d/g|c(d/4e/4f) e/|d2c|\
eA(d/4c/4=B/)|^G3/2B/E|(A/=B/4c/4) (B/4c/4d/) (c3/4B/4)|=B2A|\
^cdA|B3/2A/c|^FG3/2A/|A2G|\
cAd|c3/2f/e|f(c/4d/4_e/) (d3/4c/4)|B2A|\
cf(f/4g/4a/)|g3/2f/ (g/e/)|fd(g/4f/4e/)|^c2A|\
f3/2d/=B|(e/4f/4g)e/^c|af3/2e/|e2d|]
